!!!!SEGMENT: pl-wtm--r-704-m--011_moniuszko-stanislaw--widma-no-6-kruk.krn
!!!cenid: 18xx:3066
!!!COM: Moniuszko, Stanisław
!!!COM-rismid: pe30008351
!!!CDT: 1819/05/05-1872/06/04
!!!CNT: Polish
!!!GTL: Widma
!!!OTL: No. 6 – Kruk
!!!OMV: 011
!!!PDT: 1852
!!!AGN: Secular
!!!SMS-siglum: PL-Wtm
!!!SMS-shelfmark: R 704/M
!!!SMS-shelfwork: G
!!!SMS-variant:
!!!SMS-altvar:
!!!NIFC-rismid: 1001093778
!!!URL-scan: http://repozytorium.nifc.pl/skany/pl-wtm-nut--r704m
!!!ONB-nifc: UWAGA: skany 0039-0042 (lewa strona). Nie wpisywać tekstu rosyjskiego i samodzielnych dialogów poza krótkimi didaskaliami.
**kern	**kern	**dynam	**kern	**text	**text	**dynam	**kern	**text	**text	**dynam	**kern	**text	**text	**dynam	**kern	**text	**text	**dynam	**kern	**text	**text
*	*	*	*group1	*	*	*	*group1	*	*	*	*group1	*	*	*	*group1	*	*	*	*	*	*
*	*	*	*I""Chór!	*	*	*	*I""Chór!	*	*	*	*I""Chór!	*	*	*	*I""Chór!	*	*	*	*	*	*
*part6	*part6	*part6	*part5	*part5	*part5	*part5	*part4	*part4	*part4	*part4	*part3	*part3	*part3	*part3	*part2	*part2	*part2	*part2	*part1	*part1	*part1
*staff7	*staff6	*	*staff5	*staff5	*staff5	*	*staff4	*staff4	*staff4	*	*staff3	*staff3	*staff3	*	*staff2	*staff2	*staff2	*	*staff1	*staff1	*staff1
*Iforte	*Iforte	*	*Iempty	*	*	*	*Itenor	*	*	*	*Ialto	*	*	*	*Isoprn	*	*	*	*Iempty	*	*
*I"Forte piano.	*I"Forte piano.	*	*I"[Basso]	*	*	*	*I"[Tenore]	*	*	*	*I"[Alto]	*	*	*	*I"[Soprano]	*	*	*	*I"Kruk.	*	*
*clefF4	*clefG2	*	*clefF4	*	*	*	*clefG2	*	*	*	*clefG2	*	*	*	*clefG2	*	*	*	*clefF4	*	*
*	*	*	*	*	*	*	*ITrd8c12	*	*	*	*	*	*	*	*	*	*	*	*	*	*
*k[b-]	*k[b-]	*	*k[b-]	*	*	*	*k[b-]	*	*	*	*k[b-]	*	*	*	*k[b-]	*	*	*	*k[b-]	*	*
*d:	*d:	*	*d:	*	*	*	*d:	*	*	*	*d:	*	*	*	*d:	*	*	*	*d:	*	*
*M2/4	*M2/4	*	*M2/4	*	*	*	*M2/4	*	*	*	*M2/4	*	*	*	*M2/4	*	*	*	*M2/4	*	*
=1	=1	=1	=1	=1	=1	=1	=1	=1	=1	=1	=1	=1	=1	=1	=1	=1	=1	=1	=1	=1	=1
*tremolo	*	*	*	*	*	*	*	*	*	*	*	*	*	*	*	*	*	*	*	*	*
32AAA/LLL	2r	pp	2r	.	.	.	2r	.	.	.	2r	.	.	.	2r	.	.	.	2r	.	.
32AA/	.	.	.	.	.	.	.	.	.	.	.	.	.	.	.	.	.	.	.	.	.
32AAA/	.	.	.	.	.	.	.	.	.	.	.	.	.	.	.	.	.	.	.	.	.
32AA/	.	.	.	.	.	.	.	.	.	.	.	.	.	.	.	.	.	.	.	.	.
32AAA/	.	.	.	.	.	.	.	.	.	.	.	.	.	.	.	.	.	.	.	.	.
32AA/	.	.	.	.	.	.	.	.	.	.	.	.	.	.	.	.	.	.	.	.	.
32AAA/	.	.	.	.	.	.	.	.	.	.	.	.	.	.	.	.	.	.	.	.	.
32AA/	.	.	.	.	.	.	.	.	.	.	.	.	.	.	.	.	.	.	.	.	.
32AAA/	.	.	.	.	.	.	.	.	.	.	.	.	.	.	.	.	.	.	.	.	.
32AA/	.	.	.	.	.	.	.	.	.	.	.	.	.	.	.	.	.	.	.	.	.
32AAA/	.	.	.	.	.	.	.	.	.	.	.	.	.	.	.	.	.	.	.	.	.
32AA/	.	.	.	.	.	.	.	.	.	.	.	.	.	.	.	.	.	.	.	.	.
32AAA/	.	.	.	.	.	.	.	.	.	.	.	.	.	.	.	.	.	.	.	.	.
32AA/	.	.	.	.	.	.	.	.	.	.	.	.	.	.	.	.	.	.	.	.	.
32AAA/	.	.	.	.	.	.	.	.	.	.	.	.	.	.	.	.	.	.	.	.	.
32AA/JJJ	.	.	.	.	.	.	.	.	.	.	.	.	.	.	.	.	.	.	.	.	.
=2	=2	=2	=2	=2	=2	=2	=2	=2	=2	=2	=2	=2	=2	=2	=2	=2	=2	=2	=2	=2	=2
*rep	*	*	*	*	*	*	*	*	*	*	*	*	*	*	*	*	*	*	*	*	*
32AAA/LLL	2r	.	2r	.	.	.	2r	.	.	.	2r	.	.	.	2r	.	.	.	4r	.	.
32AA/	.	.	.	.	.	.	.	.	.	.	.	.	.	.	.	.	.	.	.	.	.
32AAA/	.	.	.	.	.	.	.	.	.	.	.	.	.	.	.	.	.	.	.	.	.
32AA/	.	.	.	.	.	.	.	.	.	.	.	.	.	.	.	.	.	.	.	.	.
32AAA/	.	.	.	.	.	.	.	.	.	.	.	.	.	.	.	.	.	.	.	.	.
32AA/	.	.	.	.	.	.	.	.	.	.	.	.	.	.	.	.	.	.	.	.	.
32AAA/	.	.	.	.	.	.	.	.	.	.	.	.	.	.	.	.	.	.	.	.	.
32AA/	.	.	.	.	.	.	.	.	.	.	.	.	.	.	.	.	.	.	.	.	.
*	*	*	*	*	*	*	*	*	*	*	*	*	*	*	*	*	*	*	*	*	*color:red
!	!	!	!	!	!	!	!	!	!	!	!	!	!	!	!	!	!	!	!LO:TX:a:t=Solo.	!	!
32AAA/	.	.	.	.	.	.	.	.	.	.	.	.	.	.	.	.	.	.	4A\	Nie	I-
32AA/	.	.	.	.	.	.	.	.	.	.	.	.	.	.	.	.	.	.	.	.	.
32AAA/	.	.	.	.	.	.	.	.	.	.	.	.	.	.	.	.	.	.	.	.	.
32AA/	.	.	.	.	.	.	.	.	.	.	.	.	.	.	.	.	.	.	.	.	.
32AAA/	.	.	.	.	.	.	.	.	.	.	.	.	.	.	.	.	.	.	.	.	.
32AA/	.	.	.	.	.	.	.	.	.	.	.	.	.	.	.	.	.	.	.	.	.
32AAA/	.	.	.	.	.	.	.	.	.	.	.	.	.	.	.	.	.	.	.	.	.
32AA/JJJ	.	.	.	.	.	.	.	.	.	.	.	.	.	.	.	.	.	.	.	.	.
*Xrep	*	*	*	*	*	*	*	*	*	*	*	*	*	*	*	*	*	*	*	*	*
=3	=3	=3	=3	=3	=3	=3	=3	=3	=3	=3	=3	=3	=3	=3	=3	=3	=3	=3	=3	=3	=3
*rep	*	*	*	*	*	*	*	*	*	*	*	*	*	*	*	*	*	*	*2\right	*	*
!LO:TX:t=cres---cen---do.:problem:dynamics with extention lines	!	!LO:HP:t=cres---cen---do.:ext=ud	!	!	!	!	!	!	!	!	!	!	!	!	!	!	!	!	!	!	!
32AAA/LLL	2r	<	2r	.	.	.	2r	.	.	.	2r	.	.	.	2r	.	.	.	2e^<\	zna-	-gno-
32AA/	.	.	.	.	.	.	.	.	.	.	.	.	.	.	.	.	.	.	.	.	.
32AAA/	.	.	.	.	.	.	.	.	.	.	.	.	.	.	.	.	.	.	.	.	.
32AA/	.	.	.	.	.	.	.	.	.	.	.	.	.	.	.	.	.	.	.	.	.
32AAA/	.	.	.	.	.	.	.	.	.	.	.	.	.	.	.	.	.	.	.	.	.
32AA/	.	.	.	.	.	.	.	.	.	.	.	.	.	.	.	.	.	.	.	.	.
32AAA/	.	.	.	.	.	.	.	.	.	.	.	.	.	.	.	.	.	.	.	.	.
32AA/	.	.	.	.	.	.	.	.	.	.	.	.	.	.	.	.	.	.	.	.	.
32AAA/	.	.	.	.	.	.	.	.	.	.	.	.	.	.	.	.	.	.	.	.	.
32AA/	.	.	.	.	.	.	.	.	.	.	.	.	.	.	.	.	.	.	.	.	.
32AAA/	.	.	.	.	.	.	.	.	.	.	.	.	.	.	.	.	.	.	.	.	.
32AA/	.	.	.	.	.	.	.	.	.	.	.	.	.	.	.	.	.	.	.	.	.
32AAA/	.	.	.	.	.	.	.	.	.	.	.	.	.	.	.	.	.	.	.	.	.
32AA/	.	.	.	.	.	.	.	.	.	.	.	.	.	.	.	.	.	.	.	.	.
32AAA/	.	.	.	.	.	.	.	.	.	.	.	.	.	.	.	.	.	.	.	.	.
32AA/JJJ	.	.	.	.	.	.	.	.	.	.	.	.	.	.	.	.	.	.	.	.	.
*Xrep	*	*	*	*	*	*	*	*	*	*	*	*	*	*	*	*	*	*	*	*	*
=4	=4	=4	=4	=4	=4	=4	=4	=4	=4	=4	=4	=4	=4	=4	=4	=4	=4	=4	=4	=4	=4
*rep	*	*	*	*	*	*	*	*	*	*	*	*	*	*	*	*	*	*	*	*	*
32AAA/LLL	2r	.	2r	.	.	.	2r	.	.	.	2r	.	.	.	2r	.	.	.	8c#X\	-łeś	-ta
32AA/	.	.	.	.	.	.	.	.	.	.	.	.	.	.	.	.	.	.	.	.	.
32AAA/	.	.	.	.	.	.	.	.	.	.	.	.	.	.	.	.	.	.	.	.	.
32AA/	.	.	.	.	.	.	.	.	.	.	.	.	.	.	.	.	.	.	.	.	.
32AAA/	.	.	.	.	.	.	.	.	.	.	.	.	.	.	.	.	.	.	8A\	li-	ti
32AA/	.	.	.	.	.	.	.	.	.	.	.	.	.	.	.	.	.	.	.	.	.
32AAA/	.	.	.	.	.	.	.	.	.	.	.	.	.	.	.	.	.	.	.	.	.
32AA/	.	.	.	.	.	.	.	.	.	.	.	.	.	.	.	.	.	.	.	.	.
32AAA/	.	.	.	.	.	.	.	.	.	.	.	.	.	.	.	.	.	.	8E\	-toś-	fu
32AA/	.	.	.	.	.	.	.	.	.	.	.	.	.	.	.	.	.	.	.	.	.
32AAA/	.	.	.	.	.	.	.	.	.	.	.	.	.	.	.	.	.	.	.	.	.
32AA/	.	.	.	.	.	.	.	.	.	.	.	.	.	.	.	.	.	.	.	.	.
32AAA/	.	.	.	.	.	.	.	.	.	.	.	.	.	.	.	.	.	.	8C#X\	-ci	de-
32AA/	.	.	.	.	.	.	.	.	.	.	.	.	.	.	.	.	.	.	.	.	.
32AAA/	.	.	.	.	.	.	.	.	.	.	.	.	.	.	.	.	.	.	.	.	.
32AA/JJJ	.	.	.	.	.	.	.	.	.	.	.	.	.	.	.	.	.	.	.	.	.
*Xrep	*	*	*	*	*	*	*	*	*	*	*	*	*	*	*	*	*	*	*	*	*
=5	=5	=5	=5	=5	=5	=5	=5	=5	=5	=5	=5	=5	=5	=5	=5	=5	=5	=5	=5	=5	=5
*rep	*	*	*	*	*	*	*	*	*	*	*	*	*	*	*	*	*	*	*	*	*
32AAA/LLL	2r	.	2r	.	.	.	2r	.	.	.	2r	.	.	.	2r	.	.	.	2AA/	pa-	-men-
32AA/	.	.	.	.	.	.	.	.	.	.	.	.	.	.	.	.	.	.	.	.	.
32AAA/	.	.	.	.	.	.	.	.	.	.	.	.	.	.	.	.	.	.	.	.	.
32AA/	.	.	.	.	.	.	.	.	.	.	.	.	.	.	.	.	.	.	.	.	.
32AAA/	.	.	.	.	.	.	.	.	.	.	.	.	.	.	.	.	.	.	.	.	.
32AA/	.	.	.	.	.	.	.	.	.	.	.	.	.	.	.	.	.	.	.	.	.
32AAA/	.	.	.	.	.	.	.	.	.	.	.	.	.	.	.	.	.	.	.	.	.
32AA/	.	.	.	.	.	.	.	.	.	.	.	.	.	.	.	.	.	.	.	.	.
32AAA/	.	.	.	.	.	.	.	.	.	.	.	.	.	.	.	.	.	.	.	.	.
32AA/	.	.	.	.	.	.	.	.	.	.	.	.	.	.	.	.	.	.	.	.	.
32AAA/	.	.	.	.	.	.	.	.	.	.	.	.	.	.	.	.	.	.	.	.	.
32AA/	.	.	.	.	.	.	.	.	.	.	.	.	.	.	.	.	.	.	.	.	.
32AAA/	.	.	.	.	.	.	.	.	.	.	.	.	.	.	.	.	.	.	.	.	.
32AA/	.	.	.	.	.	.	.	.	.	.	.	.	.	.	.	.	.	.	.	.	.
32AAA/	.	.	.	.	.	.	.	.	.	.	.	.	.	.	.	.	.	.	.	.	.
32AA/JJJ	.	.	.	.	.	.	.	.	.	.	.	.	.	.	.	.	.	.	.	.	.
*Xrep	*	*	*	*	*	*	*	*	*	*	*	*	*	*	*	*	*	*	*	*	*
=6	=6	=6	=6	=6	=6	=6	=6	=6	=6	=6	=6	=6	=6	=6	=6	=6	=6	=6	=6	=6	=6
*	*	*	*	*	*	*	*	*	*	*	*	*	*	*	*^	*	*	*	*	*	*
*rep	*	*	*	*	*	*	*	*	*	*	*	*	*	*	*	*	*	*	*	*	*	*
32AAA/LLL	2r	.	4r	.	.	.	4r	.	.	.	4r	.	.	.	4r	4ryy	.	.	.	8AA/	-nie!	-za!
32AA/	.	.	.	.	.	.	.	.	.	.	.	.	.	.	.	.	.	.	.	.	.	.
32AAA/	.	.	.	.	.	.	.	.	.	.	.	.	.	.	.	.	.	.	.	.	.	.
32AA/	.	.	.	.	.	.	.	.	.	.	.	.	.	.	.	.	.	.	.	.	.	.
32AAA/	.	.	.	.	.	.	.	.	.	.	.	.	.	.	.	.	.	.	.	8r	.	.
32AA/	.	.	.	.	.	.	.	.	.	.	.	.	.	.	.	.	.	.	.	.	.	.
32AAA/	.	.	.	.	.	.	.	.	.	.	.	.	.	.	.	.	.	.	.	.	.	.
32AA/	.	.	.	.	.	.	.	.	.	.	.	.	.	.	.	.	.	.	.	.	.	.
*	*	*	*	*	*	*	*	*	*	*	*	*	*color:red	*	*	*	*	*	*	*	*	*
32AAA/	.	.	4A\	Nie	.	.	4A/	Nie	.	.	4a/	Nie	I-	.	4a/	4a\	Nie	.	.	4r	.	.
32AA/	.	.	.	.	.	.	.	.	.	.	.	.	.	.	.	.	.	.	.	.	.	.
32AAA/	.	.	.	.	.	.	.	.	.	.	.	.	.	.	.	.	.	.	.	.	.	.
32AA/	.	.	.	.	.	.	.	.	.	.	.	.	.	.	.	.	.	.	.	.	.	.
32AAA/	.	.	.	.	.	.	.	.	.	.	.	.	.	.	.	.	.	.	.	.	.	.
32AA/	.	.	.	.	.	.	.	.	.	.	.	.	.	.	.	.	.	.	.	.	.	.
32AAA/	.	.	.	.	.	.	.	.	.	.	.	.	.	.	.	.	.	.	.	.	.	.
32AA/JJJ	.	[[	.	.	.	.	.	.	.	.	.	.	.	.	.	.	.	.	.	.	.	.
*Xrep	*	*	*	*	*	*	*	*	*	*	*	*	*	*	*	*	*	*	*	*	*	*
*	*	*	*	*	*	*	*	*	*	*	*	*	*	*	*v	*v	*	*	*	*	*	*
!!LO:PB:g=original
=7	=7	=7	=7	=7	=7	=7	=7	=7	=7	=7	=7	=7	=7	=7	=7	=7	=7	=7	=7	=7	=7
*	*2\right	*	*	*	*	*	*	*	*	*	*	*	*	*	*	*	*	*	*	*	*
*	*tremolo	*	*	*	*	*	*2\right	*	*	*	*	*	*	*	*2\right	*	*	*	*	*	*
!	!	!	!	!	!	!	!	!	!	!	!	!	!	!	!LO:TX:a:t=Chór	!	!	!	!	!	!
!	!	!LO:DY:rj	!	!	!	!LO:DY:b:rj	!	!	!	!LO:DY:b:rj	!	!	!	!LO:DY:b:rj	!	!	!	!LO:DY:b:rj	!	!	!
32AAA/LLL 32EE	32cc#X\LLL 32ee 32aa	fff	2c#X\	zna-	.	fff	2e\	zna-	.	fff	2a/	zna-	-gno-	fff	2ee\ 2aa	zna-	.	fff	2ryy	.	.
32AA/	32a\	.	.	.	.	.	.	.	.	.	.	.	.	.	.	.	.	.	.	.	.
32AAA/ 32EE	32cc#\ 32ee 32aa	.	.	.	.	.	.	.	.	.	.	.	.	.	.	.	.	.	.	.	.
32AA/	32a\	.	.	.	.	.	.	.	.	.	.	.	.	.	.	.	.	.	.	.	.
32AAA/ 32EE	32cc#\ 32ee 32aa	.	.	.	.	.	.	.	.	.	.	.	.	.	.	.	.	.	.	.	.
32AA/	32a\	.	.	.	.	.	.	.	.	.	.	.	.	.	.	.	.	.	.	.	.
32AAA/ 32EE	32cc#\ 32ee 32aa	.	.	.	.	.	.	.	.	.	.	.	.	.	.	.	.	.	.	.	.
32AA/	32a\	.	.	.	.	.	.	.	.	.	.	.	.	.	.	.	.	.	.	.	.
32AAA/ 32EE	32cc#\ 32ee 32aa	.	.	.	.	.	.	.	.	.	.	.	.	.	.	.	.	.	.	.	.
32AA/	32a\	.	.	.	.	.	.	.	.	.	.	.	.	.	.	.	.	.	.	.	.
32AAA/ 32EE	32cc#\ 32ee 32aa	.	.	.	.	.	.	.	.	.	.	.	.	.	.	.	.	.	.	.	.
32AA/	32a\	.	.	.	.	.	.	.	.	.	.	.	.	.	.	.	.	.	.	.	.
32AAA/ 32EE	32cc#\ 32ee 32aa	.	.	.	.	.	.	.	.	.	.	.	.	.	.	.	.	.	.	.	.
32AA/	32a\	.	.	.	.	.	.	.	.	.	.	.	.	.	.	.	.	.	.	.	.
32AAA/ 32EE	32cc#\ 32ee 32aa	.	.	.	.	.	.	.	.	.	.	.	.	.	.	.	.	.	.	.	.
32AA/JJJ	32a\JJJ	.	.	.	.	.	.	.	.	.	.	.	.	.	.	.	.	.	.	.	.
*	*Xtremolo	*	*	*	*	*	*	*	*	*	*	*	*	*	*	*	*	*	*	*	*
=8	=8	=8	=8	=8	=8	=8	=8	=8	=8	=8	=8	=8	=8	=8	=8	=8	=8	=8	=8	=8	=8
*	*	*	*	*	*	*	*	*	*	*	*	*	*	*	*^	*	*	*	*	*	*
*rep	*	*	*	*ij	*	*	*	*ij	*	*	*	*ij	*	*	*	*	*	*	*	*	*	*
32AAA/LLL 32EE	8ee\L	.	8A\	-łeś	.	.	8c#X\	-łeś	.	.	8a/	-łeś	-ta	.	8ee/	8ee\	-łeś	.	.	2ryy	.	.
32AA/	.	.	.	.	.	.	.	.	.	.	.	.	.	.	.	.	.	.	.	.	.	.
32AAA/ 32EE	.	.	.	.	.	.	.	.	.	.	.	.	.	.	.	.	.	.	.	.	.	.
32AA/	.	.	.	.	.	.	.	.	.	.	.	.	.	.	.	.	.	.	.	.	.	.
32AAA/ 32EE	16cc#X\L	.	8A\	li-	.	.	8A\	li-	.	.	16cc#X/LL	li-	ti	.	16cc#X/LL	16cc#\LL	li-	.	.	.	.	.
32AA/	.	.	.	.	.	.	.	.	.	.	.	.	.	.	.	.	.	.	.	.	.	.
32AAA/ 32EE	16a\JJ	.	.	.	.	.	.	.	.	.	16a/JJ	.	.	.	16a/JJ	16a\JJ	.	.	.	.	.	.
32AA/	.	.	.	.	.	.	.	.	.	.	.	.	.	.	.	.	.	.	.	.	.	.
32AAA/ 32EE	8e/L	.	8E\	-toś-	.	.	8e\	-toś-	.	.	8e/	-toś-	fu	.	8e/	8e\	-toś-	.	.	.	.	.
32AA/	.	.	.	.	.	.	.	.	.	.	.	.	.	.	.	.	.	.	.	.	.	.
32AAA/ 32EE	.	.	.	.	.	.	.	.	.	.	.	.	.	.	.	.	.	.	.	.	.	.
32AA/	.	.	.	.	.	.	.	.	.	.	.	.	.	.	.	.	.	.	.	.	.	.
32AAA/ 32EE	8c#X/J	.	8C#X\	-ci	.	.	8c#\	-ci	.	.	8c#X/	-ci	cle-	.	8c#X/	8c#\	-ci	.	.	.	.	.
32AA/	.	.	.	.	.	.	.	.	.	.	.	.	.	.	.	.	.	.	.	.	.	.
32AAA/ 32EE	.	.	.	.	.	.	.	.	.	.	.	.	.	.	.	.	.	.	.	.	.	.
32AA/JJJ	.	.	.	.	.	.	.	.	.	.	.	.	.	.	.	.	.	.	.	.	.	.
*Xrep	*	*	*	*	*	*	*	*	*	*	*	*	*	*	*	*	*	*	*	*	*	*
*Xtremolo	*	*	*	*	*	*	*	*	*	*	*	*	*	*	*	*	*	*	*	*	*	*
=9	=9	=9	=9	=9	=9	=9	=9	=9	=9	=9	=9	=9	=9	=9	=9	=9	=9	=9	=9	=9	=9	=9
[2AAA/ [2AA	[2A/	>]	[2AA^>/	pa-	.	.	[2A^>/	pa-	.	.	[2A^>/	pa-	-men-	.	[2A^/	[2A\	pa-	.	.	2ryy	.	.
*	*	*	*	*Xij	*	*	*	*Xij	*	*	*	*Xij	*	*	*	*	*	*	*	*	*	*
=10	=10	=10	=10	=10	=10	=10	=10	=10	=10	=10	=10	=10	=10	=10	=10	=10	=10	=10	=10	=10	=10	=10
2AAA/] 2AA_	2A/_	.	2AA/_	.	.	.	2A/_	.	.	.	2A/_	.	.	.	2A/_	2A\_	.	.	.	2ryy	.	.
=11	=11	=11	=11	=11	=11	=11	=11	=11	=11	=11	=11	=11	=11	=11	=11	=11	=11	=11	=11	=11	=11	=11
8AA\L]	8A/L]	<	4AA/]	-nie!	.	.	4A/]	-nie!	.	.	4A/]	-nie!	-za!	.	4A/]	4A\]	-nie!	.	.	2ryy	.	.
8C#X\	8c#X/	.	.	.	.	.	.	.	.	.	.	.	.	.	.	.	.	.	.	.	.	.
8D\	8d/	.	4r	.	.	.	4r	.	.	.	4r	.	.	.	4r	4ryy	.	.	.	.	.	.
8E\J	8e/J	.	.	.	.	.	.	.	.	.	.	.	.	.	.	.	.	.	.	.	.	.
*	*	*	*	*	*	*	*	*	*	*	*	*	*	*	*v	*v	*	*	*	*	*	*
=12	=12	=12	=12	=12	=12	=12	=12	=12	=12	=12	=12	=12	=12	=12	=12	=12	=12	=12	=12	=12	=12
8F\L	8f/L	.	2r	.	.	.	2r	.	.	.	2r	.	.	.	2r	.	.	.	2ryy	.	.
8G#X\	8g#X/	.	.	.	.	.	.	.	.	.	.	.	.	.	.	.	.	.	.	.	.
8A\	8a/	.	.	.	.	.	.	.	.	.	.	.	.	.	.	.	.	.	.	.	.
8c#X\J	8cc#X/J	[	.	.	.	.	.	.	.	.	.	.	.	.	.	.	.	.	.	.	.
!!LO:LB:g=original
=13	=13	=13	=13	=13	=13	=13	=13	=13	=13	=13	=13	=13	=13	=13	=13	=13	=13	=13	=13	=13	=13
*clefG2	*	*	*	*	*	*	*	*	*	*	*	*	*	*	*	*	*	*	*	*	*
!	!LO:TX:b:t=cres-cen-do-:problem:dynamics with extention lines	!	!	!	!	!	!	!	!	!	!	!	!	!	!	!	!	!	!	!	!
8d/L	8dd\L	<	2r	.	.	.	2r	.	.	.	2r	.	.	.	2r	.	.	.	2ryy	.	.
8e/	8ee\	.	.	.	.	.	.	.	.	.	.	.	.	.	.	.	.	.	.	.	.
8f/	8ff\	.	.	.	.	.	.	.	.	.	.	.	.	.	.	.	.	.	.	.	.
8g#X/J	8gg#X\J	.	.	.	.	.	.	.	.	.	.	.	.	.	.	.	.	.	.	.	.
=14	=14	=14	=14	=14	=14	=14	=14	=14	=14	=14	=14	=14	=14	=14	=14	=14	=14	=14	=14	=14	=14
8a/L	8aa\L	.	4r	.	.	.	4r	.	.	.	4r	.	.	.	4r	.	.	.	2ryy	.	.
8c#X/ 8cc#X	8ccc#X\	.	.	.	.	.	.	.	.	.	.	.	.	.	.	.	.	.	.	.	.
8e/J 8ee	8eee\J	[	8r	.	.	.	8r	.	.	.	8r	.	.	.	8r	.	.	.	.	.	.
*	*	*^	*	*	*	*	*	*	*	*	*	*	*	*	*	*	*	*	*	*	*
*clefF4	*	*	*	*	*	*	*	*	*	*	*	*	*	*	*	*	*	*color:red	*	*	*	*
!	!	!LO:DY:rj	!LO:DY:b=2:rj	!	!	!	!LO:DY:a:rj	!	!	!	!LO:DY:a:rj	!	!	!	!LO:DY:a:rj	!	!	!	!LO:DY:a:rj	!	!	!
16DD/LL 16AA 16D	16dd\LL 16ff 16ddd	ff	ff	16d\	Dar-	.	ff	16d\	Dar-	.	ff	16dd\	Dar-	.	ff	16dd\	Dar-	Va-	ff	.	.	.
16DD/JJ 16AA 16D	16dd\JJ 16ff 16ddd	.	.	16d\	-mo	.	.	16d\	-mo	.	.	16dd\	-mo	.	.	16dd\	-mo	-no	.	.	.	.
*	*	*v	*v	*	*	*	*	*	*	*	*	*	*	*	*	*	*	*	*	*	*	*
=15	=15	=15	=15	=15	=15	=15	=15	=15	=15	=15	=15	=15	=15	=15	=15	=15	=15	=15	=15	=15	=15
*	*	*	*	*	*ij	*	*	*	*ij	*	*	*	*ij	*	*	*	*	*	*	*	*
8DD/ 8AA 8D	(16dd^^\LL 16ff 16ddd	.	4d^<\	że-	.	.	4d^\	że-	.	.	4dd^\	że-	.	.	4dd^\	że-	pre-	.	2ryy	.	.
.	16aa\)	.	.	.	.	.	.	.	.	.	.	.	.	.	.	.	.	.	.	.	.
16D\LL 16A 16d	16ff'\ 16aa	.	.	.	.	.	.	.	.	.	.	.	.	.	.	.	.	.	.	.	.
16D\JJ 16A 16d	16ff'\JJ 16aa	.	.	.	.	.	.	.	.	.	.	.	.	.	.	.	.	.	.	.	.
8D\ 8A 8d	(16ff^^\LL 16aa	.	8A\	-brze,	.	.	8A/	-brze,	.	.	8a/	-brze,	.	.	8a/	-brze,	-ce,	.	.	.	.
.	16dd\) 16ff	.	.	.	.	.	.	.	.	.	.	.	.	.	.	.	.	.	.	.	.
16DD/LL 16AA 16D	16dd'\ 16ff	.	16A\	dar-	.	.	16A/	dar-	.	.	16a/	dar-	.	.	16a/	dar-	va-	.	.	.	.
16DD/JJ 16AA 16D	16dd'\JJ 16ff	.	16A\	-mo	.	.	16A/	-mo	.	.	16a/	-mo	.	.	16a/	-mo	-no_è_il	.	.	.	.
=16	=16	=16	=16	=16	=16	=16	=16	=16	=16	=16	=16	=16	=16	=16	=16	=16	=16	=16	=16	=16	=16
8DD/ 8AA 8D	(16ff\LL	.	4A^\	pła-	.	.	4A^/	pła-	.	.	4a^/	pła-	.	.	4a^/	pła-	pian-	.	2ryy	.	.
.	16dd\)	.	.	.	.	.	.	.	.	.	.	.	.	.	.	.	.	.	.	.	.
16D\LL 16A 16d	16dd'\ 16ff	.	.	.	.	.	.	.	.	.	.	.	.	.	.	.	.	.	.	.	.
16D\JJ 16A 16d	16ee'\JJ 16gg	.	.	.	.	.	.	.	.	.	.	.	.	.	.	.	.	.	.	.	.
8D\ 8A 8d	8ff'\ 8aa	.	8D\	-cze,	.	.	8D/	-cze,	.	.	8d/	-cze,	.	.	8d/	-cze,	-to!	.	.	.	.
16DD/LL 16AA 16D	16dd\LL 16ff 16ddd	.	16d\	my	.	.	16d\	my	.	.	16dd\	my	.	.	16dd\	my	noi	.	.	.	.
16DD/JJ 16AA 16D	16dd\JJ 16ff 16ddd	.	16d\	tu	.	.	16d\	tu	.	.	16dd\	tu	.	.	16dd\	tu	che in	.	.	.	.
=17	=17	=17	=17	=17	=17	=17	=17	=17	=17	=17	=17	=17	=17	=17	=17	=17	=17	=17	=17	=17	=17
8DD/ 8AA 8D	(16dd\LL 16ff 16ddd	.	4d^<\	czar-	.	.	4d^\	czar-	.	.	4dd^\	czar-	.	.	4dd^\	czar-	ne-	.	2ryy	.	.
.	16aa\)	.	.	.	.	.	.	.	.	.	.	.	.	.	.	.	.	.	.	.	.
16D\LL 16A 16d	16ff'\ 16aa	.	.	.	.	.	.	.	.	.	.	.	.	.	.	.	.	.	.	.	.
16D\JJ 16A 16d	16ff'\JJ 16aa	.	.	.	.	.	.	.	.	.	.	.	.	.	.	.	.	.	.	.	.
8D\ 8A 8d	(16ff\LL 16aa	.	8A\	-nym	.	.	8A/	-nym	.	.	8a/	-nym	.	.	8a/	-nym	-ro e	.	.	.	.
.	16dd\) 16ff	.	.	.	.	.	.	.	.	.	.	.	.	.	.	.	.	.	.	.	.
16DD/LL 16AA 16D	16dd'\ 16ff	.	16A\	ko-	.	.	16A/	ko-	.	.	16a/	ko-	.	.	16a/	ko-	tor-	.	.	.	.
!LO:TX:b:i:t=V&colon;S&colon;	!	!	!	!	!	!	!	!	!	!	!	!	!	!	!	!	!	!	!	!	!
16DD/JJ 16AA 16D	16dd'\JJ 16ff	.	16A\	-ro-	.	.	16A/	-ro-	.	.	16a/	-ro-	.	.	16a/	-ro-	-no	.	.	.	.
*	*	*	*	*Xij	*	*	*	*Xij	*	*	*	*Xij	*	*	*	*	*	*	*	*	*
!!LO:PB:g=original
=18	=18	=18	=18	=18	=18	=18	=18	=18	=18	=18	=18	=18	=18	=18	=18	=18	=18	=18	=18	=18	=18
8DD'/ 8AA 8D	(16ff\LL	.	4A^\	-wo-	.	.	4A^/	-wo-	.	.	4a^/	-wo-	.	.	4a^/	-wo-	scia-	.	2ryy	.	.
.	16dd\)	.	.	.	.	.	.	.	.	.	.	.	.	.	.	.	.	.	.	.	.
16D\LL 16A	16cc#X'\ 16ee	.	.	.	.	.	.	.	.	.	.	.	.	.	.	.	.	.	.	.	.
16D\JJ 16A	16ee'\JJ 16gg	.	.	.	.	.	.	.	.	.	.	.	.	.	.	.	.	.	.	.	.
*	*	*	*	*ij	*	*	*	*ij	*	*	*	*ij	*	*	*	*	*	*	*	*	*
8D\ 8A	8dd|>\ 8ff	.	8F\	-dem,	.	.	8F/	-dem,	.	.	8f/	-dem,	.	.	8f/	-dem,	-me	.	.	.	.
*	*8va	*	*	*	*	*	*	*	*	*	*	*	*	*	*	*	*	*	*	*	*
16FF/LL 16AA 16F	16ff'/LL 16aa 16fff	.	16F\	so-	.	.	16f\	so-	.	.	16f/	so-	.	.	16ff\	so-	svo-	.	.	.	.
16FF/JJ 16AA 16F	16ff'/JJ 16aa 16fff	.	16F\	-wy	.	.	16f\	-wy	.	.	16f/	-wy	.	.	16ff\	-wy	-laz-	.	.	.	.
=19	=19	=19	=19	=19	=19	=19	=19	=19	=19	=19	=19	=19	=19	=19	=19	=19	=19	=19	=19	=19	=19
8FF/ 8AA 8F	(16ff/LL 16aa 16fff	.	4F^\	kru-	.	.	4f^\	kru-	.	.	4f^/	kru-	.	.	4ff^\	kru-	-zzia-	.	2ryy	.	.
.	16ccc/)	.	.	.	.	.	.	.	.	.	.	.	.	.	.	.	.	.	.	.	.
16C\LL 16F 16A 16c	16aa'/ 16ccc	.	.	.	.	.	.	.	.	.	.	.	.	.	.	.	.	.	.	.	.
16C\JJ 16F 16A 16c	16aa'/JJ 16ccc	.	.	.	.	.	.	.	.	.	.	.	.	.	.	.	.	.	.	.	.
8C\ 8F 8A 8c	(16aa/LL 16ccc	.	8C/	-ki	.	.	8c\	-ki	.	.	8c/	-ki	.	.	8cc\	-ki	-mo a	.	.	.	.
.	16ff/) 16aa	.	.	.	.	.	.	.	.	.	.	.	.	.	.	.	.	.	.	.	.
16FF/LL 16AA 16F	16ff'/ 16aa	.	16c\	i	.	.	16c\	i	.	.	16c/	i	.	.	16cc\	i	te	.	.	.	.
16FF/JJ 16AA 16F	16ff'/JJ 16aa	.	16c\	pu-	.	.	16c\	pu-	.	.	16c/	pu-	.	.	16cc\	pu-	dac-	.	.	.	.
=20	=20	=20	=20	=20	=20	=20	=20	=20	=20	=20	=20	=20	=20	=20	=20	=20	=20	=20	=20	=20	=20
8FF/ 8AA 8F	(16aa/LL	.	4c^\	-ha-	.	.	4c^\	-ha-	.	.	4c^>/	-ha-	.	.	4cc^\	-ha-	-can-	.	2ryy	.	.
.	16ff/)	.	.	.	.	.	.	.	.	.	.	.	.	.	.	.	.	.	.	.	.
16F\LL 16d	16ff'/ 16bb-	.	.	.	.	.	.	.	.	.	.	.	.	.	.	.	.	.	.	.	.
16F\JJ 16d	16bb-'/JJ 16ddd	.	.	.	.	.	.	.	.	.	.	.	.	.	.	.	.	.	.	.	.
8C\ 8F 8A 8c	8ff|</ 8aa 8ccc	.	8F\	-cze,	.	.	8F/	-cze,	.	.	8f/	-cze,	.	.	8f/	-cze,	-to,	.	.	.	.
16FF\LL 16C 16F	16ff'\LL 16aa 16fff	.	16F\	nie-	.	.	16f\	nie-	.	.	16f/	nie-	.	.	16ff\	nie-	ser-	.	.	.	.
16FF\JJ 16C 16F	16ff'\JJ 16aa 16fff	.	16F\	-gdyś	.	.	16f\	-gdyś	.	.	16f/	-gdyś	.	.	16ff\	-gdyś	-vi	.	.	.	.
=21	=21	=21	=21	=21	=21	=21	=21	=21	=21	=21	=21	=21	=21	=21	=21	=21	=21	=21	=21	=21	=21
8FF\ 8F	(16ff\LL 16aa 16fff	.	4F^\	pan-	.	.	4f^\	pan-	.	.	4f^/	pan-	.	.	4ff^\	pan-	tuoi	.	2ryy	.	.
.	16ccc\)	.	.	.	.	.	.	.	.	.	.	.	.	.	.	.	.	.	.	.	.
16C\LL 16F 16A 16c	16aa'\ 16ccc	.	.	.	.	.	.	.	.	.	.	.	.	.	.	.	.	.	.	.	.
16C\JJ 16F 16A 16c	16aa'\JJ 16ccc	.	.	.	.	.	.	.	.	.	.	.	.	.	.	.	.	.	.	.	.
8C\ 8F 8A 8c	(16aa\LL 16ccc	.	8C/	-ku	.	.	8c\	-ku	.	.	8c/	-ku	.	.	8cc\	-ku	che	.	.	.	.
.	16ff\) 16aa	.	.	.	.	.	.	.	.	.	.	.	.	.	.	.	.	.	.	.	.
16FF\LL 16C 16F	16aa\	.	16c\	słu-	.	.	16c\	słu-	.	.	16c/	słu-	.	.	16cc\	słu-	sot-	.	.	.	.
16FF\JJ 16C 16F	16aa\JJ	.	16c\	-gi	.	.	16c\	-gi	.	.	16c/	-gi	.	.	16cc\	-gi	-to il	.	.	.	.
*	*	*	*	*Xij	*	*	*	*Xij	*	*	*	*Xij	*	*	*	*	*	*	*	*	*
!!LO:LB:g=original
=22	=22	=22	=22	=22	=22	=22	=22	=22	=22	=22	=22	=22	=22	=22	=22	=22	=22	=22	=22	=22	=22
*	*^	*	*	*	*	*	*	*	*	*	*	*	*	*	*	*	*	*	*	*	*
8FF/ 8C 8F	16aa/LL	8ryy	.	4c^\	two-	.	.	4c^\	two-	.	.	8c^>/L	two-	.	.	4cc^\	two-	ba-	.	2ryy	.	.
.	16ff/	.	.	.	.	.	.	.	.	.	.	.	.	.	.	.	.	.	.	.	.	.
16c\LL	16gg/	8ee\	.	.	.	.	.	.	.	.	.	8f/J	.	.	.	.	.	.	.	.	.	.
16c\JJ	16bb-/JJ	.	.	.	.	.	.	.	.	.	.	.	.	.	.	.	.	.	.	.	.	.
*	*v	*v	*	*	*	*	*	*	*	*	*	*	*	*	*	*	*	*	*	*	*	*
*	*X8va	*	*	*	*	*	*	*	*	*	*	*	*	*	*	*	*	*	*	*	*
*	*^	*	*	*	*	*	*	*	*	*	*	*	*	*	*	*	*	*	*	*	*
!	!LO:TX:t=P:problem:mixedbeam	!	!	!	!	!	!	!	!	!	!	!	!	!	!	!	!	!	!	!	!	!
8F\ 8c	(>16aa\LL	4ryy	.	8A\	-je,	.	.	8A\	-je,	.	.	8a/	-je,	.	.	8a/	-je,	-sto	.	.	.	.
.	16a/)	.	.	.	.	.	.	.	.	.	.	.	.	.	.	.	.	.	.	.	.	.
16r	16a'/	.	.	8r	.	.	.	8r	.	.	.	8r	.	.	.	8r	.	.	.	.	.	.
16A\	16a'/JJ	.	.	.	.	.	.	.	.	.	.	.	.	.	.	.	.	.	.	.	.	.
=23	=23	=23	=23	=23	=23	=23	=23	=23	=23	=23	=23	=23	=23	=23	=23	=23	=23	=23	=23	=23	=23	=23
*^	*	*	*	*	*	*	*	*	*	*	*	*	*	*	*	*	*	*	*	*	*	*
*	*	*	*	*	*	*	*	*	*	*	*Xij	*	*	*	*	*	*	*	*	*	*	*	*
*	*	*	*	*	*	*	*	*	*	*	*color:red	*	*	*	*	*	*	*	*	*	*	*	*
8.r	16B-\LL	8.r	(>16g\LL	.	16B-\LL	któ-	.	.	16B-/LL	któ-	mor-	.	4r	.	.	.	4r	.	.	.	2ryy	.	.
.	16A\	.	16f\	.	16A\JJ	.	.	.	16A/JJ	.	.	.	.	.	.	.	.	.	.	.	.	.	.
*	*	*	*	*	*	*ij	*	*	*	*	*	*	*	*	*	*	*	*	*	*	*	*	*
.	16G#X\	.	16e\	.	16G#X\LL	-reś	.	.	16G#X/LL	-reś	-te	.	.	.	.	.	.	.	.	.	.	.	.
16c#X/	16A\JJ	16a/	16f\JJ)	.	16A\JJ	.	.	.	16A/JJ	.	.	.	.	.	.	.	.	.	.	.	.	.	.
[4d^^>/	8.D^^<\L	(<16b-^^>/LL	4f\	.	8.B-^\	ty	.	.	8.d^\	ty	siam	.	16b-\LL	któ-	.	.	16b-\LL	któ-	mor-	.	.	.	.
.	.	16a/	.	.	.	.	.	.	.	.	.	.	16a\JJ	.	.	.	16a\JJ	.	.	.	.	.	.
*	*	*	*	*	*	*	*	*	*	*	*	*	*	*ij	*	*	*	*	*	*	*	*	*
.	.	16g#X/	.	.	.	.	.	.	.	.	.	.	16g#X\LL	-reś	.	.	16g#X\LL	-reś	-ti	.	.	.	.
.	16A\Jk	16a/JJ)	.	.	16A\	po-	.	.	16A/	po-	per	.	16a\JJ	.	.	.	16a\JJ	.	.	.	.	.	.
=24	=24	=24	=24	=24	=24	=24	=24	=24	=24	=24	=24	=24	=24	=24	=24	=24	=24	=24	=24	=24	=24	=24	=24
8.d/]	16B-\LL	8.dd/L	(>16gn\LL	.	16B-\LL	-mo-	.	.	16B-/LL	-mo-	te-	.	8.d^/	ty	.	.	8.dd^\	ty	siam	.	2ryy	.	.
.	16A\	.	16f\	.	16A\JJ	.	.	.	16A/JJ	.	.	.	.	.	.	.	.	.	.	.	.	.	.
.	16G#X\	.	16e\	.	16G#X\LL	-rzył	.	.	16G#X/LL	-rzył	-di-	.	.	.	.	.	.	.	.	.	.	.	.
16c#X/	16A\JJ	16a/Jk	16f\JJ)	.	16A\JJ	.	.	.	16A/JJ	.	.	.	16a/	po-	.	.	16a\	po-	per	.	.	.	.
[4d^^>/	8.D^^<\L	(<16b-/LL	4f\	.	8.B-^\	gło-	.	.	8.d^\	gło-	-for-	.	16b-/LL	-mo-	.	.	16b-\LL	-mo-	te-	.	.	.	.
.	.	16a/	.	.	.	.	.	.	.	.	.	.	16a/JJ	.	.	.	16a\JJ	.	.	.	.	.	.
.	.	16g#X/	.	.	.	.	.	.	.	.	.	.	16g#X/LL	-rzył	.	.	16g#X\LL	-rzył	-di	.	.	.	.
.	16A\Jk	16a/JJ)	.	.	16A\	-dem,	.	.	16A/	-dem,	-me	.	16a/JJ	.	.	.	16a\JJ	.	.	.	.	.	.
=25	=25	=25	=25	=25	=25	=25	=25	=25	=25	=25	=25	=25	=25	=25	=25	=25	=25	=25	=25	=25	=25	=25	=25
8.d/]	16B-\LL	8.dd/L	(>16gn\LL	.	16B-\LL	któ-	.	.	16B-/LL	któ-	mor-	.	8.d^/	gło-	.	.	8.dd^\	gło-	for-	.	2ryy	.	.
.	16A\	.	16f\	.	16A\JJ	.	.	.	16A/JJ	.	.	.	.	.	.	.	.	.	.	.	.	.	.
.	16G#X\	.	16e\	.	16G#X\LL	-reś	.	.	16G#X/LL	reś	-ti	.	.	.	.	.	.	.	.	.	.	.	.
16c#X/	16A\JJ	16a/Jk	16f\JJ)	.	16A\JJ	.	.	.	16A/JJ	.	.	.	16a/	-dem,	.	.	16a\	-dem,	-me	.	.	.	.
8d/L	8D^^>\L	16b-/LL	4f\	.	8d^\	Ty	.	.	8d^\	Ty	siam	.	8d^/	któ-	.	.	8f^/	któ-	mor-	.	.	.	.
.	.	16a/	.	.	.	.	.	.	.	.	.	.	.	.	.	.	.	.	.	.	.	.	.
8c#/J	8C^^>\J	16e/ 16g 16cc	.	.	8c^\	po-	.	.	8e^\	po-	per	.	8g^/	-reś	.	.	8g^/	-reś	-ti	.	.	.	.
.	.	16b-/JJ	.	.	.	.	.	.	.	.	.	.	.	.	.	.	.	.	.	.	.	.	.
*v	*v	*	*	*	*	*	*	*	*	*	*	*	*	*	*	*	*	*	*	*	*	*	*
*	*v	*v	*	*	*	*	*	*	*	*	*	*	*	*	*	*	*	*	*	*	*	*
!!LO:PB:g=original
=26	=26	=26	=26	=26	=26	=26	=26	=26	=26	=26	=26	=26	=26	=26	=26	=26	=26	=26	=26	=26	=26
8FF^^>/L 8F	8a^^>\L 8ff	.	8F\	-mo-	.	.	8f\	-mo-	te	.	8f/	ty	.	.	8a^^>/	ty	siam	.	2ryy	.	.
8BB-^^>/ 8B-	8g^^>\ 8dd 8gg	.	8B-\	-rzył	.	.	8d\	-rzył	per	.	8g/	po-	.	.	8dd^^>\	po-	per	.	.	.	.
8AA^^>/ 8A	8a^^>\ 8cc#X 8ee 8aa	.	8A\	gło-	.	.	8c#X\	gło-	te-	.	8e/	-mo-	.	.	8ee^^>\	-mo-	te	.	.	.	.
8GG^^>/J 8G	8b-^^>\J 8dd 8gg 8bb-	.	8B-\	-dem	.	.	8d\	-dem	-di-	.	8g/	-rzył	.	.	8gg^^>\	-rzył	di	.	.	.	.
*	*	*	*	*	*Xij	*	*	*	*Xij	*	*	*	*Xij	*	*	*	*	*	*	*	*
=27	=27	=27	=27	=27	=27	=27	=27	=27	=27	=27	=27	=27	=27	=27	=27	=27	=27	=27	=27	=27	=27
*2\right	*	*	*	*Xij	*	*	*	*	*	*	*	*Xij	*	*	*	*	*	*	*	*	*
!	!	!LO:DY:t=ssf.	!	!	!	!	!	!	!	!	!	!	!	!	!	!	!	!	!	!	!
[2CC#X\ [2C#X	[>2E</ [>2G< [>2B<-	sff	2BB-X^>/	Któ-	.	.	2B-X^\	Któ-	-for-	.	[2B-X^>/	Któ-	.	.	[2b-X/	gło-	for-	.	2ryy	.	.
=28	=28	=28	=28	=28	=28	=28	=28	=28	=28	=28	=28	=28	=28	=28	=28	=28	=28	=28	=28	=28	=28
*	*	*	*	*ij	*	*	*	*ij	*	*	*	*	*	*	*	*	*	*	*	*	*
2CC#X\_ 2C#X_	2E</] 2G<] 2B-<]	.	8BB-/	-reś	.	.	8B-\	-reś	-me,	.	8B-/]	-reś	.	.	4b-/]	-dem,	-me!	.	2ryy	.	.
.	.	.	16BB-/	ty	.	.	16B-\	ty	mo-	.	16B-/	ty	.	.	.	.	.	.	.	.	.
.	.	.	16BB-/	po-	.	.	16B-\	po-	-rti	.	16B-/	po-	.	.	.	.	.	.	.	.	.
.	.	.	8BB-/	-mo-	.	.	8B-\	-mo-	siam	.	8B-/	-mo-	.	.	4r	.	.	.	.	.	.
.	.	.	8BB-/	-rzył	.	.	8B-\	-rzył	di	.	8B-/	-rzył	.	.	.	.	.	.	.	.	.
=29	=29	=29	=29	=29	=29	=29	=29	=29	=29	=29	=29	=29	=29	=29	=29	=29	=29	=29	=29	=29	=29
*^	*	*	*	*	*	*	*	*	*	*	*	*	*	*	*	*	*	*	*	*	*
2CC#X\_< 2C#X_<	[>2E/ [>2A	4r	.	2AA/	gło-	.	.	2A\	gło-	fa-	.	2A/	gło-	.	.	2r	.	.	.	2ryy	.	.
*	*	*	*	*	*Xij	*	*	*	*Xij	*	*	*	*	*	*	*	*	*	*	*	*	*
.	.	8r	.	.	.	.	.	.	.	.	.	.	.	.	.	.	.	.	.	.	.	.
!	!	!	!LO:DY:rj	!	!	!	!	!	!	!	!	!	!	!	!	!	!	!	!	!	!	!
.	.	16c#X'/LL 16cc#X	pp	.	.	.	.	.	.	.	.	.	.	.	.	.	.	.	.	.	.	.
.	.	16c#'/JJ 16cc#	.	.	.	.	.	.	.	.	.	.	.	.	.	.	.	.	.	.	.	.
=30	=30	=30	=30	=30	=30	=30	=30	=30	=30	=30	=30	=30	=30	=30	=30	=30	=30	=30	=30	=30	=30	=30
4CC#\] 4C#]	4E/] 4A]	8c#X'/L 8cc#X	.	4AA/	-dem,	.	.	4A\	-dem,	-me!	.	4A/	-dem,	.	.	2r	.	.	.	2ryy	.	.
.	.	16c#'/L 16cc#	.	.	.	.	.	.	.	.	.	.	.	.	.	.	.	.	.	.	.	.
.	.	16c'#/JJ 16cc#	.	.	.	.	.	.	.	.	.	.	.	.	.	.	.	.	.	.	.	.
8r	4ryy	8c#'/ 8cc#	.	4r	.	.	.	4r	.	.	.	4r	.	.	.	.	.	.	.	.	.	.
*	*	*8va	*	*	*	*	*	*	*	*	*	*	*	*	*	*	*	*	*	*	*	*
16FF#X'/LL 16C#X	.	16fff#X'\LL 16aaa	p	.	.	.	.	.	.	.	.	.	.	.	.	.	.	.	.	.	.	.
16FF#'/JJ 16C#	.	16fff#'\JJ 16aaa	.	.	.	.	.	.	.	.	.	.	.	.	.	.	.	.	.	.	.	.
*v	*v	*	*	*	*	*	*	*	*	*	*	*	*	*	*	*	*	*	*	*	*	*
!!LO:LB:g=original
=31||	=31||	=31||	=31||	=31||	=31||	=31||	=31||	=31||	=31||	=31||	=31||	=31||	=31||	=31||	=31||	=31||	=31||	=31||	=31||	=31||	=31||
*k[f#c#]	*k[f#c#]	*	*k[f#c#]	*	*	*	*k[f#c#]	*	*	*	*k[f#c#]	*	*	*	*k[f#c#]	*	*	*	*k[f#c#]	*	*
!	!	!	!	!	!	!LO:DY:a:rj	!	!	!	!LO:DY:a:rj	!	!	!	!LO:DY:a:rj	!	!	!	!LO:DY:a:rj	!	!	!
8FF#'/ 8C#	(16fff#\LL 16aaa	.	4F#\	zje-	.	p	4c#\	zje-	.	p	4f#/	zje-	.	p	4a/	zje-	L'in-	p	2ryy	.	.
.	16ccc#\) 16fff#	.	.	.	.	.	.	.	.	.	.	.	.	.	.	.	.	.	.	.	.
16A'\LL 16c# 16f#	16ccc#'\ 16fff#	.	.	.	.	.	.	.	.	.	.	.	.	.	.	.	.	.	.	.	.
16A'\JJ 16c# 16f#	16ccc#'\JJ 16fff#	.	.	.	.	.	.	.	.	.	.	.	.	.	.	.	.	.	.	.	.
*	*	*	*	*ij	*	*	*	*ij	*	*	*	*ij	*	*	*	*	*	*	*	*	*
8A'\ 8c# 8f#	(16ccc#\LL 16fff#	.	8F#\	-my	.	.	8c#\	-my	.	.	8f#/	-my	.	.	8a/	-my	-vo-	.	.	.	.
.	16aa\) 16ccc#	.	.	.	.	.	.	.	.	.	.	.	.	.	.	.	.	.	.	.	.
16FF#'/LL 16F#	16aa'\ 16ccc#	.	8F#\	po-	.	.	8c#\	po-	.	.	8f#/	po-	.	.	8a/	po-	-le-	.	.	.	.
16FF#'/JJ 16F#	16ccc#'\JJ 16eee	.	.	.	.	.	.	.	.	.	.	.	.	.	.	.	.	.	.	.	.
=32	=32	=32	=32	=32	=32	=32	=32	=32	=32	=32	=32	=32	=32	=32	=32	=32	=32	=32	=32	=32	=32
8BBB'/ 8BB	(16ccc#\LL 16eee	.	4BB/	-kar-	.	.	(8.f#\L	-kar-	.	.	4f#/	-kar-	.	.	4a/	-kar-	-re	.	2ryy	.	.
.	16bb\) 16ddd#X	.	.	.	.	.	.	.	.	.	.	.	.	.	.	.	.	.	.	.	.
.	8qccc#'/ 8qeee	.	.	.	.	.	.	.	.	.	.	.	.	.	.	.	.	.	.	.	.
16F#'\LL 16A 16B 16d#X	16bb'\ 16ddd#	.	.	.	.	.	.	.	.	.	.	.	.	.	.	.	.	.	.	.	.
16F#'\JJ 16A 16B 16e	16ff#'\JJ 16ccc#	.	.	.	.	.	16e\Jk)	.	.	.	.	.	.	.	.	.	.	.	.	.	.
8F#'\ 8A 8B 8d#	8bb'\	.	8BB/	-my,	.	.	8d#X\	-my,	.	.	8f#/	-my,	.	.	8a/	-my,	mo-	.	.	.	.
16EE'/LL 16BB	16eee'\LL 16ggg	.	8E\	wy-	.	.	8B\	wy-	.	.	8e/	wy-	.	.	8g/	wy-	-di	.	.	.	.
16EE'/JJ 16BB	16eee'\JJ 16ggg	.	.	.	.	.	.	.	.	.	.	.	.	.	.	.	.	.	.	.	.
=33	=33	=33	=33	=33	=33	=33	=33	=33	=33	=33	=33	=33	=33	=33	=33	=33	=33	=33	=33	=33	=33
8EE'/ 8BB	(16eee\LL 16ggg	.	4E\	-pi-	.	.	4e\	-pi-	.	.	4g/	-pi-	.	.	4g/	-pi-	boc-	.	2ryy	.	.
.	16bb\) 16eee	.	.	.	.	.	.	.	.	.	.	.	.	.	.	.	.	.	.	.	.
16G'\LL 16B 16e	16bb'\ 16eee	.	.	.	.	.	.	.	.	.	.	.	.	.	.	.	.	.	.	.	.
16G'\JJ 16B 16e	16bb'\JJ 16eee	.	.	.	.	.	.	.	.	.	.	.	.	.	.	.	.	.	.	.	.
8G'\ 8B 8e	(16bb\LL 16eee	.	8E\	-jem	.	.	8B\	-jem	.	.	8g/	-jem	.	.	8b\	-jem	-ca o-	.	.	.	.
.	16gg\) 16bb	.	.	.	.	.	.	.	.	.	.	.	.	.	.	.	.	.	.	.	.
16EE'/LL 16E	16gg'\ 16bb	.	8E\	na-	.	.	8e\	na-	.	.	8g/	na-	.	.	8dd\	na-	-gni	.	.	.	.
16EE'/JJ 16E	16bb'\JJ 16ddd	.	.	.	.	.	.	.	.	.	.	.	.	.	.	.	.	.	.	.	.
=34	=34	=34	=34	=34	=34	=34	=34	=34	=34	=34	=34	=34	=34	=34	=34	=34	=34	=34	=34	=34	=34
.	.	.	.	.	.	.	.	.	.	.	.	.	.	.	8qdd/	.	.	.	.	.	.
*	*^	*	*	*	*	*	*	*	*	*	*	*	*	*	*	*	*	*	*	*	*
8AAA'/ 8AA	(16bb\LL 16ddd	4.ryy	.	4AA/	-po-	.	.	8.e\L	-po-	.	.	4g/	-po-	.	.	8.cc#\L	-po-	pa-	.	2ryy	.	.
*	*	*	*	*	*Xij	*	*	*	*Xij	*	*	*	*Xij	*	*	*	*	*	*	*	*	*
.	16aa\) 16ccc#	.	.	.	.	.	.	.	.	.	.	.	.	.	.	.	.	.	.	.	.	.
.	8qbb/ 8qddd	.	.	.	.	.	.	.	.	.	.	.	.	.	.	.	.	.	.	.	.	.
16G'\LL 16A 16c#	16aa'\ 16ccc#	.	.	.	.	.	.	.	.	.	.	.	.	.	.	.	.	.	.	.	.	.
16G'\JJ 16A 16d	16ee'\JJ 16bb	.	.	.	.	.	.	16d\Jk	.	.	.	.	.	.	.	16b\Jk	.	.	.	.	.	.
8G'\ 8A 8c#	8aa'\	.	.	8AA/	-je,	.	.	8c#\	-je,	.	.	8g/	-je,	.	.	8a\	-je,	-sto,	.	.	.	.
*	*v	*v	*	*	*	*	*	*	*	*	*	*	*	*	*	*	*	*	*	*	*	*
*	*X8va	*	*	*	*	*	*	*	*	*	*	*	*	*	*	*	*	*	*	*	*
*	*^	*	*	*	*	*	*	*	*	*	*	*	*	*	*	*	*	*	*	*	*
!	!	!	!LO:DY:rj	!	!	!	!	!	!	!	!	!	!	!	!	!	!	!	!LO:DY:a:rj	!	!	!
16DD'/LL 16AA	16aa/LL	16a\LL	pp	8r	.	.	.	8r	.	.	.	8r	.	.	.	16a/	zje-	o-	pp	.	.	.
!LO:TX:b:i:t=V&colon;S&colon;	!	!	!	!	!	!	!	!	!	!	!	!	!	!	!	!	!	!	!	!	!	!
16DD'/JJ 16AA	16aa/JJ	16a\JJ	.	.	.	.	.	.	.	.	.	.	.	.	.	16a/	-my	-gni	.	.	.	.
!!LO:PB:g=original
=35	=35	=35	=35	=35	=35	=35	=35	=35	=35	=35	=35	=35	=35	=35	=35	=35	=35	=35	=35	=35	=35	=35
!	!	!LO:TX:b:i:t=dolciss&colon;	!	!	!	!	!	!	!	!	!	!	!	!	!	!	!	!	!	!	!	!
!	!	!	!	!	!	!	!	!	!	!	!	!	!	!	!	!LO:TX:a:t=P:problem:tekst włoski nad nutami	!	!	!	!	!	!
8DD'/ 8AA	8aa/L	(>16a\LL	.	4r	.	.	.	8r	.	.	.	8r	.	.	.	4a/	po-	pa-	.	2ryy	.	.
.	.	16dd\)	.	.	.	.	.	.	.	.	.	.	.	.	.	.	.	.	.	.	.	.
!	!	!	!	!	!	!	!	!	!	!	!LO:DY:a:rj	!LO:TX:a:t=P:problem:tekst włoski nad nutami	!	!	!LO:DY:a:rj	!	!	!	!	!	!	!
16F#'\LL 16A 16d	16aa/L	16dd\	.	.	.	.	.	16A/	zje-	o-	pp	16f#/	zje-	o-	pp	.	.	.	.	.	.	.
16F#'\JJ 16A 16d	16aa/JJ	16ee\JJ	.	.	.	.	.	16A/	-my	-gni	.	16f#/	-my	-gni	.	.	.	.	.	.	.	.
8F#'\ 8A 8d	8aa/L	(>16ee\LL	.	8r	.	.	.	[4A/	po-	pa-	.	16f#/	po-	pa-	.	8a/	-karm,	-sto in-	.	.	.	.
.	.	16ff#\)	.	.	.	.	.	.	.	.	.	16f#/	-karm,	-sto in-	.	.	.	.	.	.	.	.
*	*	*	*	*	*	*color:red	*	*	*	*	*	*	*	*	*	*	*	*	*	*	*	*
!	!	!	!	!	!	!	!LO:DY:a:rj	!	!	!	!	!	!	!	!	!	!	!	!	!	!	!
!	!	!	!	!LO:TX:a:t=P:problem:tekst włoski nad nutami	!	!	!	!	!	!	!	!	!	!	!	!	!	!	!	!	!	!
16DD'/LL 16AA	16aa/L	16ff#\	.	16D\	zje-	dal-	pp	.	.	.	.	16f#/	wy-	-vo-	.	16a/	wy-	-vo-	.	.	.	.
16DD'/JJ 16AA	16aa/JJ	16aa\JJ	.	16D\	-my	-la	.	.	.	.	.	16f#/	-pi-	-le-	.	16a/	-pi-	-le-	.	.	.	.
=36	=36	=36	=36	=36	=36	=36	=36	=36	=36	=36	=36	=36	=36	=36	=36	=36	=36	=36	=36	=36	=36	=36
*	*	*	*	*2\right	*	*	*	*	*	*	*	*	*	*	*	*	*	*	*	*	*	*
8DD'/ 8AA	8aa/L	(>16aa\LL	.	[2D\	po-	boc-	.	8A/]	-karm,	-sti in-	.	(16g^>/LL	-je-	-re-	.	4a/	-je-	-re-	.	2ryy	.	.
.	.	16ee\)	.	.	.	.	.	.	.	.	.	16f#/JJ)	.	.	.	.	.	.	.	.	.	.
16G'\LL 16A 16c# 16e	16aa/L	16ee\	.	.	.	.	.	16A/	wy-	-vo-	.	16e/	-my	-mo	.	.	.	.	.	.	.	.
16G'\JJ 16A 16c# 16e	16aa/JJ	16a'>\JJ	.	.	.	.	.	16A/	-pi-	-le-	.	16e/	na-	di	.	.	.	.	.	.	.	.
8G'\ 8A 8c# 8e	(<16aa/LL	8a^^>\L	.	.	.	.	.	[4A/	-je-	-re-	.	(16g/LL	-po-	boc-	.	8a/	-my,	-mo	.	.	.	.
.	16ee/)	.	.	.	.	.	.	.	.	.	.	16f#/JJ)	.	.	.	.	.	.	.	.	.	.
16DD'/LL 16AA	16aa'</	16a'>\L	.	.	.	.	.	.	.	.	.	8e/	-je,	-ca	.	16a/	wy-	dal-	.	.	.	.
16DD'/JJ 16AA	16aa'</JJ	16a'>\JJ	.	.	.	.	.	.	.	.	.	.	.	.	.	16a/	-pi-	-la	.	.	.	.
=37	=37	=37	=37	=37	=37	=37	=37	=37	=37	=37	=37	=37	=37	=37	=37	=37	=37	=37	=37	=37	=37	=37
8DD'/ 8AA	8aa/L	(>16a\LL	.	4D\]	-karm,	-ca	.	8A/]	-my,	-mo	.	8r	.	.	.	4a/	-je-	boc-	.	2ryy	.	.
.	.	16dd\)	.	.	.	.	.	.	.	.	.	.	.	.	.	.	.	.	.	.	.	.
16F#'\LL 16A 16d	16aa/L	16dd'>\	.	.	.	.	.	16A/	wy-	dal-	.	16f#/	zje-	o-	.	.	.	.	.	.	.	.
16F#'\JJ 16A 16d	16aa/JJ	16ee'>\JJ	.	.	.	.	.	16A/	-pi-	-la	.	16f#/	-my	-gni	.	.	.	.	.	.	.	.
8F#'\ 8A 8d	8aa/L	(>16ee\LL	.	8r	.	.	.	8A/	-je-	boc-	.	16f#/	po-	pa-	.	8a/	-my	-ca o-	.	.	.	.
.	.	16ff#\)	.	.	.	.	.	.	.	.	.	16f#/	-karm,	-sto in-	.	.	.	.	.	.	.	.
16DD'/LL 16AA	16aa/L	16ff#\	.	16D\	i	og-	.	16A/	-my	-ca og-	.	16f#/	wy-	-vo-	.	8a/	na-	-gni	.	.	.	.
16DD'/JJ 16AA	16aa/JJ	16aa\JJ	.	16D\	na-	-ni	.	16A/	na-	-ni	.	16f#/	-pi-	-le-	.	.	.	.	.	.	.	.
=38	=38	=38	=38	=38	=38	=38	=38	=38	=38	=38	=38	=38	=38	=38	=38	=38	=38	=38	=38	=38	=38	=38
8DD'/ 8AA	8aa/L	(>16aa\LL	.	4A\	-po-	pas-	.	4A/	-po-	pa-	.	(16g/LL	-je-	-re	.	4a/	-po-	pa-	.	2ryy	.	.
.	.	16ee\)	.	.	.	.	.	.	.	.	.	16f#/JJ)	.	in	.	.	.	.	.	.	.	.
16A'\LL 16c# 16e	16aa'</L	16ee'>\	.	.	.	.	.	.	.	.	.	16e/	-my	og-	.	.	.	.	.	.	.	.
16A'\JJ 16c# 16e	16aa'</JJ	16a'>\JJ	.	.	.	.	.	.	.	.	.	16e/	na-	-ni	.	.	.	.	.	.	.	.
8A'\ 8c# 8e	(<16aa/LL	8a^^>\	.	8A\	-je.	-to	.	8A/	-je.	-sto	.	16a/	-po-	pa-	.	8a/	-je.	-sto	.	.	.	.
.	16ee/JJ)	.	.	.	.	.	.	.	.	.	.	16a/	-je,	-sto	.	.	.	.	.	.	.	.
!	!	!	!LO:DY:rj	!	!	!	!LO:DY:a:rj	!	!	!	!LO:DY:a:rj	!	!	!	!LO:DY:a	!	!	!	!LO:DY:a:rj	!	!	!
16d\LL	16f#'/LL 16dd 16ff#	8ryy	ff	8d\	Hej	Chi!	ff	8d\	Hej!	.	ff	8dd\	hej!	Chi	ff	8dd\	Hej!	Chi	ff	.	.	.
16d\JJ	16f#'/JJ 16dd 16ff#	.	.	.	.	.	.	.	.	.	.	.	.	.	.	.	.	.	.	.	.	.
*	*v	*v	*	*	*	*	*	*	*	*	*	*	*	*	*	*	*	*	*	*	*	*
!!LO:LB:g=original
=39	=39	=39	=39	=39	=39	=39	=39	=39	=39	=39	=39	=39	=39	=39	=39	=39	=39	=39	=39	=39	=39
(16d\LL	8f#^\L 8dd 8ff#	.	(16d\LL	so-	.	.	(16d\LL	so-	.	.	(16dd\LL	so-	gu-	.	(16dd\LL	so-	.	.	2ryy	.	.
16c#\)	.	.	16c#\JJ)	.	.	.	16c#\JJ)	.	.	.	16cc#\JJ)	.	.	.	16cc#\JJ)	.	.	.	.	.	.
*	*	*	*	*ij	*	*	*	*ij	*	*	*	*ij	*	*	*	*	*	*	*	*	*
16c#'\	16f#'\L 16dd 16ff#	.	16c#\	-wy,	.	.	16c#\	-wy,	.	.	16cc#\	-wy,	-fi,	.	16cc#\	-wy,	.	.	.	.	.
16B'\JJ	16f#'\JJ 16dd 16ff#	.	16B\	pu-	.	.	16B\	pu-	.	.	16b\	pu-	spar-	.	16b\	pu-	.	.	.	.	.
(16B\LL	8f#^\L 8dd 8ff#	.	(16B\LL	-ha-	.	.	(16B\LL	-ha-	.	.	(16b\LL	-ha-	-vie-	.	(16b\LL	-ha-	.	.	.	.	.
16A#X\)	.	.	16A#X\JJ)	.	.	.	16A#X\JJ)	.	.	.	16a#X\JJ)	.	.	.	16a#X\JJ)	.	.	.	.	.	.
(16A#\	16f#'\L 16dd 16ff#	.	(16A#\LL	-cze,	.	.	(16A#\LL	-cze,	.	.	(16a#\LL	-cze,	-rie	.	(16a#\LL	-cze,	.	.	.	.	.
16B\JJ)	16f#'\JJ 16dd 16ff#	.	16B\JJ)	.	.	.	16B\JJ)	.	.	.	16b\JJ)	.	.	.	16b\JJ)	.	.	.	.	.	.
=40	=40	=40	=40	=40	=40	=40	=40	=40	=40	=40	=40	=40	=40	=40	=40	=40	=40	=40	=40	=40	=40
(16B\LL	8f#^\L 8dd 8ff#	.	4B^\	Kru-	.	.	4B^\	Kru-	.	.	4b^\	Kru-	cor-	.	(4b^/	Kru-	.	.	2ryy	.	.
16F#\)	.	.	.	.	.	.	.	.	.	.	.	.	.	.	.	.	.	.	.	.	.
16F#'\	16f#'\L 16dd 16ee	.	.	.	.	.	.	.	.	.	.	.	.	.	.	.	.	.	.	.	.
16G#X'\JJ	16f#'\JJ 16dd 16ee	.	.	.	.	.	.	.	.	.	.	.	.	.	.	.	.	.	.	.	.
8A\	8f#'\ 8cc# 8ee	.	8An\	-ki!	.	.	8An\	-ki!	.	.	8an\	-ki!	-vi!	.	8an/)	-ki!	.	.	.	.	.
16cn'\LL	16e'\LL 16ccn 16ee	.	8cn\	Szpo-	.	.	8cn\	Szpo-	.	.	8ccn|>\	Szpo-	col-	.	8ccn|>\	Szpo-	.	.	.	.	.
16c'\JJ	16e'\JJ 16cc 16ee	.	.	.	.	.	.	.	.	.	.	.	.	.	.	.	.	.	.	.	.
=41	=41	=41	=41	=41	=41	=41	=41	=41	=41	=41	=41	=41	=41	=41	=41	=41	=41	=41	=41	=41	=41
(16cn\LL	8e^\L 8ccn 8ee	.	(16cn\LL	-na-	.	.	(16cn\LL	-na-	.	.	(16ccn\LL	-na-	-pe	.	(16ccn\LL	-na-	.	.	2ryy	.	.
16B\)	.	.	16B\JJ)	.	.	.	16B\JJ)	.	.	.	16b\JJ)	.	.	.	16b\JJ)	.	.	.	.	.	.
16B'\	16e'\L 16cc 16ee	.	16B\	-mi,	.	.	16B\	-mi,	.	.	16b\	-mi,	co e	.	16b\	-mi,	.	.	.	.	.
16A'\JJ	16e'\JJ 16cc 16ee	.	16A\	krzy-	.	.	16A\	krzy-	.	.	16a\	krzy-	gli a	.	16a\	krzy-	.	.	.	.	.
(16A\LL	8e^\L 8cc 8ee	.	(16A\LL	-we-	.	.	(16A\LL	-we-	.	.	(16a\LL	-we-	guz-	.	(16a\LL	-we-	.	.	.	.	.
16G#X\)	.	.	16G#X\JJ)	.	.	.	16G#X\JJ)	.	.	.	16g#X\JJ)	.	.	.	16g#X\JJ)	.	.	.	.	.	.
16G#'\	16e'\L 16cc 16ee	.	(16G#\LL	-mi	.	.	(16G#\LL	-mi	.	.	(16g#\LL	-mi	-zi	.	(16g#\LL	-mi	.	.	.	.	.
16A'\JJ	16e'\JJ 16cc 16ee	.	16A\JJ)	.	.	.	16A\JJ)	.	.	.	16a\JJ)	.	ar-	.	16a\JJ)	.	.	.	.	.	.
=42	=42	=42	=42	=42	=42	=42	=42	=42	=42	=42	=42	=42	=42	=42	=42	=42	=42	=42	=42	=42	=42
*	*^	*	*	*	*	*	*	*	*	*	*	*	*	*	*	*	*	*	*	*	*
(16A\LL	8e^\L 8ccn 8ee	4.ryy	.	4A^\	dzio-	.	.	4A^/	dzio-	.	.	4a^/	dzio-	-ti-	.	(4a^/	dzio-	.	.	2ryy	.	.
16E\)	.	.	.	.	.	.	.	.	.	.	.	.	.	.	.	.	.	.	.	.	.	.
16E'\	16d'\L 16cc 16dd	.	.	.	.	.	.	.	.	.	.	.	.	.	.	.	.	.	.	.	.	.
16F#'\JJ	16d'\JJ 16cc 16dd	.	.	.	.	.	.	.	.	.	.	.	.	.	.	.	.	.	.	.	.	.
8G\	8d'\ 8b 8dd	.	.	8Gn\	-by,	.	.	8Gn/	-by,	.	.	8gn|</	-by,	-gli	.	8gn|</)	-by,	.	.	.	.	.
8BB\ 8G 8B	16dd/LL	8d\ 8g	.	8B\	szar-	.	.	8d\	szar-	.	.	8g/	szar-	vo-	.	8dd\	szar-	.	.	.	.	.
*	*	*	*	*	*Xij	*	*	*	*Xij	*	*	*	*Xij	*	*	*	*	*	*	*	*	*
.	16dd/JJ	.	.	.	.	.	.	.	.	.	.	.	.	.	.	.	.	.	.	.	.	.
!!LO:PB:g=original
=43	=43	=43	=43	=43	=43	=43	=43	=43	=43	=43	=43	=43	=43	=43	=43	=43	=43	=43	=43	=43	=43	=43
8AA|>\L 8G 8A	(<16dd/LL	8e\L 8g	.	8A'\	-paj-	.	.	8e'\	-paj-	.	.	8g'/	-paj-	-la-	.	8cc#'\	-paj-	.	.	2ryy	.	.
.	16cc#/)	.	.	.	.	.	.	.	.	.	.	.	.	.	.	.	.	.	.	.	.	.
*	*	*	*	*	*ij	*	*	*	*ij	*	*	*	*ij	*	*	*	*	*	*	*	*	*
8BB|>\ 8G 8B	16dd'</	8d\ 8g	.	8B'\	-my	.	.	8d'\	-my	.	.	8g'/	-my	-te ad	.	8dd'\	-my	.	.	.	.	.
.	16dd'</JJ	.	.	.	.	.	.	.	.	.	.	.	.	.	.	.	.	.	.	.	.	.
8AA|>\ 8G 8A	(<16dd/LL	8e\ 8g	.	8A'\	ja-	.	.	8e'\	ja-	.	.	8g'/	ja-	in-	.	8cc#'\	ja-	.	.	.	.	.
.	16cc#/)	.	.	.	.	.	.	.	.	.	.	.	.	.	.	.	.	.	.	.	.	.
8BB|>\J 8G 8B	16dd'</	8d\J 8g	.	8B'\	-dło	.	.	8d'\	-dło	.	.	8g'/	-dło	-nap-	.	8dd'\	-dło	.	.	.	.	.
.	16dd'</JJ	.	.	.	.	.	.	.	.	.	.	.	.	.	.	.	.	.	.	.	.	.
=44	=44	=44	=44	=44	=44	=44	=44	=44	=44	=44	=44	=44	=44	=44	=44	=44	=44	=44	=44	=44	=44	=44
8AA\ 8A	(<16dd/LL	8e\ 8g	.	4A^\	w_sztu-	.	.	4e^\	w_sztu-	.	.	4g^/	w_sztu-	-par-	.	4cc#^\	w_sztu-	.	.	2ryy	.	.
.	16cc#/)	.	.	.	.	.	.	.	.	.	.	.	.	.	.	.	.	.	.	.	.	.
8ryy	(<16cc#/	(>16c#\LL	>	.	.	.	.	.	.	.	.	.	.	.	.	.	.	.	.	.	.	.
.	16ee/JJ	16e\JJ	.	.	.	.	.	.	.	.	.	.	.	.	.	.	.	.	.	.	.	.
8ryy	8aa/)	8a\)	]	4D\	-ki,	.	.	8e\	-ki,	.	.	8e/	-ki,	-vi	.	8ee\	-ki,	.	.	.	.	.
8C#\ 8A 8c#	16ee'</LL	8e\ 8a	.	.	.	.	.	8e/	choć-	.	.	8a/	choć-	Qua-	.	8ee\	choć-	.	.	.	.	.
.	16ee'</JJ	.	.	.	.	.	.	.	.	.	.	.	.	.	.	.	.	.	.	.	.	.
=45	=45	=45	=45	=45	=45	=45	=45	=45	=45	=45	=45	=45	=45	=45	=45	=45	=45	=45	=45	=45	=45	=45
8BB|>\L 8A 8B	(<16ee/LL	8f#\L 8a	.	8B\	choć-	.	.	8f#\	-by	.	.	8a/	-by	-lun-	.	8dd#X\	-by	.	.	2ryy	.	.
.	16dd#X/)	.	.	.	.	.	.	.	.	.	.	.	.	.	.	.	.	.	.	.	.	.
8C#|>\ 8A 8c#	16ee'</	8e\ 8a	.	8c#\	-by	.	.	8e\	już	.	.	8a/	już	-que	.	8ee\	już	.	.	.	.	.
.	16ee'</JJ	.	.	.	.	.	.	.	.	.	.	.	.	.	.	.	.	.	.	.	.	.
8BB|>\ 8A 8B	(<16ee/LL	8f#\ 8a	.	8B\	już	.	.	8f#\	trzy-	.	.	8a/	trzy-	ci-	.	8dd#\	trzy-	.	.	.	.	.
.	16dd#X/)	.	.	.	.	.	.	.	.	.	.	.	.	.	.	.	.	.	.	.	.	.
8C#|>\J 8A 8c#	16ee'</	8e\J 8a	.	8c#\	trzy-	.	.	8e\	-mał	.	.	8a/	-mał	-bo ab-	.	8ee\	-mał	.	.	.	.	.
.	16ee'</JJ	.	.	.	.	.	.	.	.	.	.	.	.	.	.	.	.	.	.	.	.	.
=46	=46	=46	=46	=46	=46	=46	=46	=46	=46	=46	=46	=46	=46	=46	=46	=46	=46	=46	=46	=46	=46	=46
8BB\ 8B	(<16ee/LL	8f#\ 8a	.	4B^\	-mał	.	.	4f#^\	w_gę-	.	.	4b^/	w_gę-	-ve-	.	4dd#X^\	w_gę-	.	.	2ryy	.	.
.	16dd#X/)	.	.	.	.	.	.	.	.	.	.	.	.	.	.	.	.	.	.	.	.	.
8ryy	(<16dd#/	(>16d#X\LL	>	.	.	.	.	.	.	.	.	.	.	.	.	.	.	.	.	.	.	.
.	16ff#/JJ	16f#\JJ	.	.	.	.	.	.	.	.	.	.	.	.	.	.	.	.	.	.	.	.
8ryy	8bb/)	8b\)	]	8B\	w_gę-	.	.	8B\	-bie,	.	.	8b/	-bie,	-chi,	.	8ff#\	-bie,	.	.	.	.	.
8D#X\ 8B 8d#X	16aa/LL	8b\ 8ff#	.	8B\	-bie,	.	.	8d#X\	i	.	.	8a/	i	da	.	8ff#\	i	.	.	.	.	.
*	*	*	*	*	*Xij	*	*	*	*Xij	*	*	*	*Xij	*	*	*	*	*	*	*	*	*
.	16aa/JJ	.	.	.	.	.	.	.	.	.	.	.	.	.	.	.	.	.	.	.	.	.
!!LO:LB:g=original
=47	=47	=47	=47	=47	=47	=47	=47	=47	=47	=47	=47	=47	=47	=47	=47	=47	=47	=47	=47	=47	=47	=47
8E|>\L 8B 8e	(<16aa/LL	8b\L 8ee	.	8B\	tam	.	.	8e\	tam	.	.	8g#X/	tam	noi	.	8ee\	tam	.	.	2ryy	.	.
.	16gg#X/)	.	.	.	.	.	.	.	.	.	.	.	.	.	.	.	.	.	.	.	.	.
*	*	*	*	*	*ij	*	*	*	*ij	*	*	*	*ij	*	*	*	*	*	*	*	*	*
8D#X|>\ 8B 8d#X	16aa/	8b\ 8ff#	.	8B\	szpo-	.	.	8d#X\	szpo-	.	.	8a/	szpo-	gli	.	8ff#\	szpo-	.	.	.	.	.
.	16aa/JJ	.	.	.	.	.	.	.	.	.	.	.	.	.	.	.	.	.	.	.	.	.
8E|>\ 8B 8e	(<16aa/LL	8b\ 8ee	.	8B\	-nę	.	.	8e\	-nę	.	.	8g#/	-nę	si ag-	.	8ee\	-nę	.	.	.	.	.
.	16gg#/)	.	.	.	.	.	.	.	.	.	.	.	.	.	.	.	.	.	.	.	.	.
8D#|>\J 8B 8d#	16aa/	8b\J 8ff#	.	8B\	za-	.	.	8d#\	za-	.	.	8a/	za-	-gher-	.	8ff#\	za-	.	.	.	.	.
.	16aa/JJ	.	.	.	.	.	.	.	.	.	.	.	.	.	.	.	.	.	.	.	.	.
=48	=48	=48	=48	=48	=48	=48	=48	=48	=48	=48	=48	=48	=48	=48	=48	=48	=48	=48	=48	=48	=48	=48
8E\ 8B 8e	(<16aa/LL	8b\ 8ee	.	4E^\	-głę-	.	.	4e^\	-głę-	.	.	4g#X^/	-głę-	-mi-	.	4ee^\	-głę-	.	.	2ryy	.	.
.	16gg#X/)	.	.	.	.	.	.	.	.	.	.	.	.	.	.	.	.	.	.	.	.	.
8ryy	(<16bb/	(>16b\LL	>	.	.	.	.	.	.	.	.	.	.	.	.	.	.	.	.	.	.	.
.	16gg#/JJ	16g#X\JJ	.	.	.	.	.	.	.	.	.	.	.	.	.	.	.	.	.	.	.	.
8ryy	8ee/)	8e\)	]	8E\	-bię,	.	.	8E/	-bię,	.	.	8e/	-bię,	-gli,	.	8ee\	-bię,	.	.	.	.	.
!	!	!	!LO:DY:rj	!	!	!	!LO:DY:a:rj	!	!	!	!LO:DY:a:rj	!	!	!	!LO:DY:a:rj	!	!	!	!LO:DY:a:rj	!	!	!
8AAA^^</ 8AA	8a^^>\ 8cc# 8aa	8ryy	ff	8A\	do-	.	ff	8c#\	do-	.	ff	8a/	do-	quel	ff	8ee\	do-	.	ff	.	.	.
*	*v	*v	*	*	*	*	*	*	*	*	*	*	*	*	*	*	*	*	*	*	*	*
=49	=49	=49	=49	=49	=49	=49	=49	=49	=49	=49	=49	=49	=49	=49	=49	=49	=49	=49	=49	=49	=49
8CC#^^</L 8C#	8a^^>\L 8ee	.	(8c#^\L	-sta-	.	.	(8e^\L	-sta-	.	.	4a^/	-sta-	l'em-	.	4ee^\	-sta-	.	.	2ryy	.	.
8DD^^</ 8D	8a^^>\ 8dd 8ff#	.	8d\J)	.	.	.	8f#\J)	.	.	.	.	.	.	.	.	.	.	.	.	.	.
8BBB^^</ 8BB	8a^^>\ 8dd	.	8B\	-nę	.	.	8f#\	-nę	.	.	8a/	-nę	-pio	.	8dd\	-nę	.	.	.	.	.
8EE^^</J 8E	8g#X^^>\J 8b	.	8E\	aż	.	.	8e\	aż	.	.	8g#X/	aż	quell'	.	8b\	aż	.	.	.	.	.
=50	=50	=50	=50	=50	=50	=50	=50	=50	=50	=50	=50	=50	=50	=50	=50	=50	=50	=50	=50	=50	=50
8AAA^^</ 8AA	(16a^^>\LL 16cc#	.	8A\	do	.	.	8c#\	do	.	.	8a/	do	em-	.	8cc#\	do	.	.	2ryy	.	.
.	16ee\	.	.	.	.	.	.	.	.	.	.	.	.	.	.	.	.	.	.	.	.
!	!	!LO:HP:b=2	!	!	!	!	!	!	!	!	!	!	!	!	!	!	!	!	!	!	!
(>16A\LL	16aa\	>	8E\	wą-	.	.	8A\	wą-	.	.	8a/	wą-	-pion-	.	8a\	wą-	.	.	.	.	.
16c#\JJ	16ccc#\JJ	.	.	.	.	.	.	.	.	.	.	.	.	.	.	.	.	.	.	.	.
8e\)	8eee\)	]	8C#\	-tro-	.	.	8c#\	-tro-	.	.	8cc#\	-tro-	-de	.	8cc#\	-tro-	.	.	.	.	.
!LO:TX:b:i:t=V&colon;S&colon;	!	!	!	!	!	!	!	!	!	!	!	!	!	!	!	!	!	!	!	!	!
8FF#^^</ 8F#	8a^^>\ 8cc# 8aa	.	8C#\	-by	.	.	8c#\	-by	.	.	8cc#\	-by	nol	.	8cc#\	-by	.	.	.	.	.
*	*	*	*	*Xij	*	*	*	*Xij	*	*	*	*Xij	*	*	*	*	*	*	*	*	*
!!LO:PB:g=original
=51	=51	=51	=51	=51	=51	=51	=51	=51	=51	=51	=51	=51	=51	=51	=51	=51	=51	=51	=51	=51	=51
8CC#^^>/L 8C#	(8a^^>\L 8ee	.	(8C#^/L	aż	.	.	(8e^\L	aż	.	.	(4a^/	aż	toc-	.	4ee^\	aż	.	.	2ryy	.	.
8DD^^>/J 8D	8a^^>\J) 8ff#	.	8D/J)	.	.	.	8f#\J)	.	.	.	.	.	.	.	.	.	.	.	.	.	.
8BBB^^>/L 8BB	8a^^>\L 8dd	.	8BB/	do	.	.	8f#\	do	.	.	8f#/)	do	-chi,	.	8dd\	do	.	.	.	.	.
!	!LO:TX:t=P:problem:krzyżyk ołówkiem	!	!	!	!	!	!	!	!	!	!	!	!	!	!	!	!	!	!	!	!
8EE^^>/J 8E	8g#X^^>\J 8b	.	8E\	wą-	.	.	8e\	wą-	.	.	8g#X/	wą-	no	.	8b\	wą-	.	.	.	.	.
=52	=52	=52	=52	=52	=52	=52	=52	=52	=52	=52	=52	=52	=52	=52	=52	=52	=52	=52	=52	=52	=52
8AA/	8a/	.	[2AA/	-tro-	.	.	[2A/	-tro-	.	.	[2a/	-tro-	toc-	.	[2a/	-tro-	.	.	2ryy	.	.
16AA'>\LL	16A<'</LL	.	.	.	.	.	.	.	.	.	.	.	.	.	.	.	.	.	.	.	.
16AA'>\JJ	16A<'</JJ	.	.	.	.	.	.	.	.	.	.	.	.	.	.	.	.	.	.	.	.
(>16AA\LL	(<16A</LL	.	.	.	.	.	.	.	.	.	.	.	.	.	.	.	.	.	.	.	.
16GG\)	16G</)	.	.	.	.	.	.	.	.	.	.	.	.	.	.	.	.	.	.	.	.
16AA'>\	16A<'</	.	.	.	.	.	.	.	.	.	.	.	.	.	.	.	.	.	.	.	.
16AA'>\JJ	16A<'</JJ	.	.	.	.	.	.	.	.	.	.	.	.	.	.	.	.	.	.	.	.
=53	=53	=53	=53	=53	=53	=53	=53	=53	=53	=53	=53	=53	=53	=53	=53	=53	=53	=53	=53	=53	=53
(>16AA\LL	(<16A</LL	.	2AA/]	.	.	.	2A/]	.	.	.	2a/]	.	.	.	2a/]	.	.	.	2ryy	.	.
16GG\)	16G</)	.	.	.	.	.	.	.	.	.	.	.	.	.	.	.	.	.	.	.	.
16AA'>\	16A<'</	.	.	.	.	.	.	.	.	.	.	.	.	.	.	.	.	.	.	.	.
16AA'>\JJ	16A<'</JJ	.	.	.	.	.	.	.	.	.	.	.	.	.	.	.	.	.	.	.	.
(>16AA\LL	(<16A</LL	.	.	.	.	.	.	.	.	.	.	.	.	.	.	.	.	.	.	.	.
16GG\)	16G</)	.	.	.	.	.	.	.	.	.	.	.	.	.	.	.	.	.	.	.	.
16AA'>\	16A<'</	.	.	.	.	.	.	.	.	.	.	.	.	.	.	.	.	.	.	.	.
16AA'>\JJ	16A<'</JJ	.	.	.	.	.	.	.	.	.	.	.	.	.	.	.	.	.	.	.	.
=54	=54	=54	=54	=54	=54	=54	=54	=54	=54	=54	=54	=54	=54	=54	=54	=54	=54	=54	=54	=54	=54
8AA\	8A</	.	8AA/	-by.	.	.	8A/	-by.	.	.	8A/	-by.	-chi!	.	8A/	-by.	.	.	2ryy	.	.
8r	8r	.	8r	.	.	.	8r	.	.	.	8r	.	.	.	8r	.	.	.	.	.	.
4r	4r	.	4r	.	.	.	4r	.	.	.	4r	.	.	.	4r	.	.	.	.	.	.
==	==	==	==	==	==	==	==	==	==	==	==	==	==	==	==	==	==	==	==	==	==
*-	*-	*-	*-	*-	*-	*-	*-	*-	*-	*-	*-	*-	*-	*-	*-	*-	*-	*-	*-	*-	*-
!!!system-decoration: s1[(s2,s3,s4,s5)][(s6,s7)]
!!!RDF**kern: < = below
!!!RDF**kern: > = above
!!!RDF**kern: | = vertical stroke
!!!RDF**dynam: pp = "pp."
!!!RDF**dynam: p = "p."
!!!RDF**dynam: fff = "fff."
!!!RDF**dynam: ff = "ff."
!!!ENC: Anastazja Marusiak
!!!END: 2021-09-13
!!!ENC: Marta Chmielewska
!!!ENC: 2021-10-12
